build/img/icons/oil.svg

<svg width="45" height="46" viewBox="0 0 45 46" fill="none" xmlns="http://www.w3.org/2000/svg">
<path fill-rule="evenodd" clip-rule="evenodd" d="M35.8013 37.1657C30.3584 42.6107 25.4513 46.6657 22.7456 45.1728L22.6713 45.2464L22.1734 44.7493C22.1713 44.7421 22.1677 44.7421 22.1649 44.7421V44.7278L3.48557 26.0571C3.48272 26.0571 3.47843 26.055 3.477 26.05C1.24415 23.82 4.65415 19.0071 9.85558 13.6343V5.85711H9.87343C10.0591 2.67139 12.6949 0.142822 15.927 0.142822C18.6384 0.142822 20.9227 1.92425 21.7006 4.37854C22.9434 4.00997 23.972 4.11711 24.6934 4.84139L43.8863 24.0343L43.8149 24.1078C45.3363 26.8364 41.2577 31.7221 35.8077 37.1721L35.8013 37.1657ZM19.6384 40.19C19.8327 40.09 21.0027 39.8364 21.6584 39.18C22.2477 38.5914 21.7113 38.2228 21.1534 37.6657L15.0927 31.6043C14.5356 31.0471 13.702 30.9493 13.152 31.5C12.9991 31.6528 11.762 32.0107 11.557 32.11C14.5127 35.1243 16.412 36.9643 19.6384 40.19ZM4.487 25.0428L4.49415 25.0485C5.257 25.7971 7.89629 24.4721 11.1656 21.8914C9.46915 21.5435 6.75843 21.25 4.97129 22.3307C4.28343 23.6578 4.07629 24.6307 4.487 25.0435V25.0428ZM12.0641 13.4285C9.55129 15.9407 7.477 18.4257 6.09986 20.4685C8.44486 19.7371 11.3377 20.3043 12.6763 20.6471C13.787 19.695 14.942 18.6328 16.1049 17.4685C17.8249 15.7485 19.3406 14.04 20.5691 12.4771V6.55425C18.3263 7.80925 15.2163 10.2771 12.0641 13.4285ZM15.927 1.57139C13.4856 1.57139 11.5056 3.46282 11.3199 5.85711H11.2841V12.19C14.6249 8.87068 17.8149 6.16854 20.3591 4.92211C19.7999 2.99282 18.0391 1.57139 15.927 1.57139ZM23.6806 5.85282C23.3849 5.55639 22.7949 5.58568 21.9984 5.87639V10.535C23.5784 8.21354 24.277 6.44211 23.6806 5.84925V5.85282ZM30.7506 12.9171C30.2363 13.9971 28.7792 15.8993 27.722 16.9571C27.172 17.5071 27.1649 18.42 27.722 18.9771L35.3006 26.5528C35.8577 27.11 36.5006 26.3685 36.8149 26.0478C37.8077 25.085 38.6149 22.5878 39.0506 21.2321C34.2506 16.3621 32.6934 14.82 30.7577 12.9164L30.7506 12.9171ZM42.372 24.54V24.5385L40.8006 22.9714C40.8077 22.9714 40.8077 22.97 40.8077 22.97L40.222 22.3821C39.9792 23.5264 39.2842 25.6093 37.3292 27.5635C36.6184 28.2707 35.1363 28.3993 34.2984 27.5635L26.207 19.4785C25.3713 18.6428 25.3813 17.2728 26.207 16.4478C27.8049 14.85 28.9192 12.7607 29.457 11.6193L25.3499 7.51425C25.0213 9.10711 23.7827 11.05 21.9984 13.21V22.2857C21.9984 22.6807 21.6784 23 21.2841 23C20.8899 23 20.5699 22.6807 20.5699 22.2857V14.8621C19.522 16.0264 18.3556 17.2364 17.1141 18.4785C12.8663 22.7257 8.94986 26.1178 6.14629 26.7014L10.2606 30.8157C11.082 30.5978 12.187 30.4714 13.0734 29.5843C14.1984 28.87 14.762 29.2521 15.5984 30.0893L22.6699 37.1607C23.5056 37.9964 23.8856 38.975 23.1749 39.685C22.6084 40.2493 21.7491 41.1207 20.9534 41.5064L23.1749 43.7278L23.1763 43.7207L23.1806 43.7278C24.3056 44.8293 29.4991 41.4421 34.792 36.1493C40.092 30.8493 43.4777 25.6493 42.3634 24.5307L42.372 24.54ZM18.7427 25.5143C17.3449 24.12 17.3449 21.8585 18.7427 20.4643C18.8641 20.345 18.997 20.25 19.1284 20.15V21.475L19.7691 21.4893C18.932 22.3235 18.932 23.675 19.7691 24.5071C20.6049 25.3407 21.962 25.3407 22.7977 24.5071C23.6149 23.6957 23.6284 22.3964 22.8549 21.5593L23.4263 21.5714V20.1535C23.5577 20.2521 23.6906 20.3464 23.8084 20.465C25.2084 21.865 25.2084 24.1221 23.8084 25.5221C22.4099 26.915 20.142 26.915 18.7441 25.5221L18.7427 25.5143ZM7.71415 34.4285C7.71415 36.4014 6.11415 38 4.14272 38C2.16986 38 0.571289 36.4014 0.571289 34.4285C0.571289 32.4557 4.14272 28.7143 4.14272 28.7143C4.14272 28.7143 7.71415 32.4557 7.71415 34.4285ZM4.14272 36.5714C5.32629 36.5714 6.28558 35.5871 6.28558 34.3735C6.28558 33.16 4.14272 30.8571 4.14272 30.8571C4.14272 30.8571 1.99986 33.16 1.99986 34.3735C1.99986 35.5871 2.957 36.5714 4.14129 36.5714H4.14272Z" fill="#5CC773"/>
</svg>

<svg width="45" height="46" fill="none" xmlns="http://www.w3.org/2000/svg">
    <path fill-rule="evenodd" clip-rule="evenodd" d="M35.801 37.166c-5.443 5.445-10.35 9.5-13.055 8.007l-.075.073-.498-.497c-.002-.007-.005-.007-.008-.007v-.014l-18.68-18.67a.01.01 0 0 1-.008-.008c-2.233-2.23 1.177-7.043 6.379-12.416V5.857h.017A6.067 6.067 0 0 1 15.927.143a6.059 6.059 0 0 1 5.774 4.236c1.242-.369 2.271-.262 2.992.462l19.193 19.193-.071.074c1.521 2.728-2.557 7.614-8.007 13.064l-.007-.006zM19.638 40.19c.195-.1 1.365-.354 2.02-1.01.59-.589.053-.957-.505-1.514l-6.06-6.062c-.557-.557-1.391-.655-1.941-.104-.153.153-1.39.51-1.595.61 2.956 3.014 4.855 4.854 8.081 8.08zM4.487 25.043l.007.006c.763.748 3.402-.577 6.672-3.158-1.697-.347-4.408-.641-6.195.44-.688 1.327-.895 2.3-.484 2.713v-.001zm7.577-11.614c-2.513 2.512-4.587 4.997-5.964 7.04 2.345-.732 5.238-.165 6.576.178a60.626 60.626 0 0 0 3.429-3.178c1.72-1.72 3.236-3.429 4.464-4.992V6.554c-2.243 1.255-5.353 3.723-8.505 6.874zM15.927 1.57c-2.441 0-4.421 1.892-4.607 4.286h-.036v6.333c3.34-3.32 6.53-6.021 9.075-7.268-.56-1.93-2.32-3.35-4.432-3.35zm7.754 4.282c-.296-.297-.886-.267-1.683.023v4.659c1.58-2.321 2.279-4.093 1.683-4.686v.004zm7.07 7.064c-.515 1.08-1.972 2.982-3.029 4.04a1.436 1.436 0 0 0 0 2.02l7.579 7.576c.557.557 1.2-.184 1.514-.505.993-.963 1.8-3.46 2.236-4.816-4.8-4.87-6.358-6.412-8.293-8.316l-.007.001zM42.372 24.54v-.002l-1.571-1.567.007-.001-.586-.588c-.243 1.144-.938 3.227-2.893 5.181-.71.708-2.193.836-3.03 0l-8.092-8.084a2.154 2.154 0 0 1 0-3.031c1.598-1.598 2.712-3.687 3.25-4.829L25.35 7.514c-.329 1.593-1.567 3.536-3.352 5.696v9.076a.714.714 0 1 1-1.428 0v-7.424a96.672 96.672 0 0 1-3.456 3.617C12.866 22.726 8.95 26.117 6.146 26.7l4.115 4.115c.821-.218 1.926-.345 2.812-1.232 1.125-.714 1.689-.332 2.525.505l7.072 7.072c.836.835 1.216 1.814.505 2.524-.567.564-1.426 1.436-2.222 1.821l2.222 2.222.001-.007.005.007c1.125 1.101 6.318-2.286 11.611-7.579 5.3-5.3 8.686-10.5 7.571-11.618l.009.009zm-23.63.974a3.565 3.565 0 0 1 0-5.05c.122-.119.255-.214.386-.314v1.325l.641.014a2.127 2.127 0 0 0 0 3.018 2.146 2.146 0 0 0 3.029 0 2.12 2.12 0 0 0 .057-2.948l.571.012v-1.418c.132.1.265.193.382.312a3.57 3.57 0 0 1 0 5.057 3.591 3.591 0 0 1-5.064 0l-.001-.008zM7.715 34.43a3.572 3.572 0 0 1-7.143 0c0-1.973 3.572-5.715 3.572-5.715s3.571 3.742 3.571 5.715zM4.143 36.57c1.183 0 2.143-.984 2.143-2.197 0-1.214-2.143-3.517-2.143-3.517S2 33.16 2 34.374c0 1.213.957 2.197 2.141 2.197h.002z" fill="#5CC773"/>
</svg>
